src/apps/scalable/com.belmoussaoui.Obfuscate.svg

<?xml version="1.0" encoding="UTF-8"?>
<svg width="64" height="64" version="1.1" xmlns="http://www.w3.org/2000/svg">
 <defs>
  <linearGradient id="linearGradient17" x1="60.002" x2="102" y1="32" y2="32" gradientTransform="matrix(1 0 0 .99994 -49.002 .0027675)" gradientUnits="userSpaceOnUse">
   <stop stop-color="#1e88e5" offset="0"/>
   <stop stop-color="#1f9dff" offset="1"/>
  </linearGradient>
  <filter id="filter18" x="-.067858" y="-.083823" width="1.1357" height="1.1676" color-interpolation-filters="sRGB">
   <feGaussianBlur stdDeviation="1.1875001"/>
  </filter>
  <linearGradient id="linearGradient862-3-6" x1="7.9373" x2="7.9373" y1="15.081" y2="1.852" gradientTransform="matrix(4.0494,0,0,4.0494,-2.2856,-2.2519)" gradientUnits="userSpaceOnUse">
   <stop stop-color="#f1efeb" offset="0"/>
   <stop stop-color="#fdfcfc" offset="1"/>
  </linearGradient>
  <filter id="filter7" x="-.027" y="-.027" width="1.054" height="1.054" color-interpolation-filters="sRGB">
   <feGaussianBlur stdDeviation="0.675"/>
  </filter>
 </defs>
 <rect x="2" y="3" width="60" height="60" rx="30" ry="30" filter="url(#filter7)" opacity=".15"/>
 <rect x="2" y="2" width="60" height="60" rx="30" ry="30" fill="url(#linearGradient862-3-6)" stroke-width="4.0494"/>
 <path d="m32.66 15.998-18.646 2e-3c-1.6657-0.0044-3.0174 1.3533-3.0137 3.0272v27.942c0 1.6783 1.3435 3.0272 3.0137 3.0272h17.986v2e-3h15.207v-4.3455h5.793v-25.309h-5.793v-4.3435h-14.547z" filter="url(#filter18)" opacity=".15" stroke-width=".72412"/>
 <path d="m32.66 15-18.646 2e-3c-1.6657-0.0044-3.0174 1.3533-3.0137 3.0272v27.942c0 1.6783 1.3435 3.0272 3.0137 3.0272h17.986v2e-3h15.207v-4.3455h5.793v-25.309h-5.793v-4.3435h-14.547z" fill="url(#linearGradient17)" stroke-width=".72412"/>
 <g stroke-width=".72414">
  <path d="m22.586 23.311c0 1.9993-1.6209 3.6201-3.6213 3.6201-1.9996 0-3.6201-1.6209-3.6201-3.6201 0-2.0004 1.6209-3.6213 3.6201-3.6213a3.6205 3.6205 0 0 1 3.6213 3.6213z" fill="#ff3737"/>
  <path d="m27.043 23.311c0 1.9993-1.622 3.6201-3.6213 3.6201s-3.6213-1.6209-3.6213-3.6201c0-2.0004 1.6216-3.6213 3.6213-3.6213s3.6213 1.6209 3.6213 3.6213z" fill="#ffc025"/>
  <path d="m21.19 20.459a3.6263 3.6263 0 0 0-1.3895 2.8517 3.6242 3.6242 0 0 0 1.3964 2.8503 3.6216 3.6216 0 0 0 1.3891-2.8503 3.6205 3.6205 0 0 0-1.3964-2.8514z" fill="#ff872b"/>
  <path d="m15.345 41.414h13.035v2.8966h-13.035z" fill="#9a9996"/>
  <path d="m15.345 37.069h7.2414v2.1724h-7.2414z" fill="#deddda"/>
 </g>
 <g transform="matrix(1.4982 0 0 1.4982 7.2795 8.0845)">
  <path d="m17.95 15.479h4.35v4.35h-4.35z" opacity=".15"/>
  <path d="m22.3 15.479h4.35v4.35h-4.35z" fill="#fff" opacity=".2"/>
  <path d="m17.95 19.829h4.35v4.35h-4.35z" fill="#fff" opacity=".2"/>
  <path d="m22.3 19.829h4.35v4.35h-4.35z" opacity=".15"/>
 </g>
 <path d="m32 11a2 2 0 0 0-2 2v38a2 2 0 0 0 2 2 2 2 0 0 0 2-2v-38a2 2 0 0 0-2-2z" color="#000000" fill="#e4e4e4" stroke-linecap="round" style="-inkscape-stroke:none"/>
</svg>

<svg xmlns="http://www.w3.org/2000/svg" width="64" height="64"><defs><linearGradient id="d" x1="60.002" x2="102" y1="32" y2="32" gradientTransform="matrix(1 0 0 .99994 -49.002 .003)" gradientUnits="userSpaceOnUse"><stop offset="0" stop-color="#1e88e5"/><stop offset="1" stop-color="#1f9dff"/></linearGradient><linearGradient id="b" x1="7.937" x2="7.937" y1="15.081" y2="1.852" gradientTransform="translate(-2.286 -2.252) scale(4.0494)" gradientUnits="userSpaceOnUse"><stop offset="0" stop-color="#f1efeb"/><stop offset="1" stop-color="#fdfcfc"/></linearGradient><filter id="c" width="1.136" height="1.168" x="-.068" y="-.084" color-interpolation-filters="sRGB"><feGaussianBlur stdDeviation="1.188"/></filter><filter id="a" width="1.054" height="1.054" x="-.027" y="-.027" color-interpolation-filters="sRGB"><feGaussianBlur stdDeviation=".675"/></filter></defs><rect width="60" height="60" x="2" y="3" filter="url(#a)" opacity=".15" rx="30" ry="30"/><rect width="60" height="60" x="2" y="2" fill="url(#b)" rx="30" ry="30"/><path d="M32.66 15.998 14.014 16A3.013 3.013 0 0 0 11 19.027V46.97a3.013 3.013 0 0 0 3.014 3.027H32v.002h15.207v-4.345H53v-25.31h-5.793V16H32.66z" filter="url(#c)" opacity=".15"/><path fill="url(#d)" d="m32.66 15-18.646.002A3.013 3.013 0 0 0 11 18.029v27.942a3.013 3.013 0 0 0 3.014 3.027H32V49h15.207v-4.345H53v-25.31h-5.793v-4.343H32.66z"/><g stroke-width=".724"><path fill="#ff3737" d="M22.586 23.311a3.62 3.62 0 1 1-3.621-3.621 3.62 3.62 0 0 1 3.621 3.621z"/><path fill="#ffc025" d="M27.043 23.311a3.621 3.621 0 1 1-7.242-.002 3.621 3.621 0 0 1 7.242.002z"/><path fill="#ff872b" d="M21.19 20.459a3.626 3.626 0 0 0-1.39 2.852 3.624 3.624 0 0 0 1.397 2.85 3.622 3.622 0 0 0 1.389-2.85 3.62 3.62 0 0 0-1.396-2.852z"/><path fill="#9a9996" d="M15.345 41.414H28.38v2.897H15.345z"/><path fill="#deddda" d="M15.345 37.069h7.241v2.172h-7.241z"/></g><path d="M34.172 31.275h6.517v6.517h-6.517z" opacity=".15"/><path fill="#fff" d="M40.69 31.275h6.517v6.517h-6.518zM34.172 37.792h6.517v6.517h-6.517z" opacity=".2"/><path d="M40.69 37.792h6.517v6.517h-6.518z" opacity=".15"/><path fill="#e4e4e4" d="M32 11a2 2 0 0 0-2 2v38a2 2 0 0 0 2 2 2 2 0 0 0 2-2V13a2 2 0 0 0-2-2z" color="#000" style="-inkscape-stroke:none"/></svg>
